actions/22/story-editor.svg

<svg xmlns="http://www.w3.org/2000/svg" viewBox="0 0 22 22">
  <defs id="defs3051">
    <style type="text/css" id="current-color-scheme">.ColorScheme-Text {color:#fcfcfc;}.ColorScheme-Highlight {color:#3daee9;}</style>
  </defs>
 <path 
     style="fill:currentColor;fill-opacity:1;stroke:none" 
     d="m 3,3 v 3 c 0,0 0,7 0,10 0,3 3,3 3,3 H 9 V 18 H 6 C 6,18 4,18 4,16 4,14 4,6 4,6 h 12 v 4 h 1 V 6 5 3 H 15 V 4 H 14 V 3 H 6 V 4 H 5 V 3 Z M 5,7 V 8 H 15 V 7 Z m 0,3 v 1 h 10 v -1 z m 12,1 -0.996094,0.994141 -0.0039,-0.0039 -5,4.998047 0.0078,0.0078 L 11.003906,18 H 11 V 18.990234 19 h 2 l 0.0059,-0.0059 0.0039,-0.0039 c 0.004,-2e-5 0.0058,0.002 0.0098,0.002 l -0.0059,-0.0059 L 14,18 l 4,-3.996094 -0.705078,-0.708984 -4.990234,4.986328 -0.59375,-0.591797 4.992187,-4.988281 0.591797,0.59375 L 18,13.998047 l 1,-1 z M 5,13 v 1 h 7 v -1 z"
     class="ColorScheme-Text"
     />
</svg>

<svg xmlns="http://www.w3.org/2000/svg" viewBox="0 0 22 22">
  <defs id="defs3051">
    <style type="text/css" id="current-color-scheme">
      .ColorScheme-Text {
        color:#eff0f1;
      }
      .ColorScheme-Highlight {
        color:#3daee9;
      }
      </style>
  </defs>
 <path 
     style="fill:currentColor;fill-opacity:1;stroke:none" 
     d="M 3 3 L 3 6 L 3 19 L 4 19 L 9 19 L 9 18 L 4 18 L 4 6 L 16 6 L 16 10 L 17 10 L 17 6 L 17 5 L 17 3 L 15 3 L 15 4 L 14 4 L 14 3 L 6 3 L 6 4 L 5 4 L 5 3 L 3 3 z M 5 7 L 5 8 L 15 8 L 15 7 L 5 7 z M 5 10 L 5 11 L 15 11 L 15 10 L 5 10 z M 17 11 L 16.003906 11.994141 L 16 11.990234 L 11 16.988281 L 11.007812 16.996094 L 11.003906 18 L 11 18 L 11 18.990234 L 11 19 L 13 19 L 13.005859 18.994141 L 13.009766 18.990234 C 13.013766 18.990214 13.015531 18.992187 13.019531 18.992188 L 13.013672 18.986328 L 14 18 L 18 14.003906 L 17.294922 13.294922 L 12.304688 18.28125 L 11.710938 17.689453 L 16.703125 12.701172 L 17.294922 13.294922 L 18 13.998047 L 19 12.998047 L 17 11 z M 5 13 L 5 14 L 12 14 L 12 13 L 5 13 z "
     class="ColorScheme-Text"
     />
</svg>
